;FLAVOR:UltiGCode
;TIME:9554
;MATERIAL:21415
;MATERIAL2:0
;NOZZLE_DIAMETER:0.6
;MINX:57.845
;MINY:81.119
;MINZ:0.48
;MAXX:161.997
;MAXY:141.88
;MAXZ:22.705
;Generated with Cura_SteamEngine 4.8.0
M82 ;absolute extrusion mode
G0 F3000 Y50 ;avoid prime blob
G92 E0
G92 E0
G10
;LAYER_COUNT:142
;LAYER:-8
M107
G0 F7200 X65.694 Y85.463 Z0.48
;TYPE:SUPPORT-INTERFACE
G11
G1 F1237.5 X65.842 Y85.351 E0.10691
G1 X66.576 Y84.842 E0.6214
G1 X66.693 Y84.766 E0.70176
G1 X67.464 Y84.309 E1.21801
G1 X67.618 Y84.226 E1.31878
G1 X68.406 Y83.834 E1.82573
G1 X68.561 Y83.764 E1.92369
G1 X69.347 Y83.442 E2.41294
G1 X69.546 Y83.371 E2.53464
G1 X70.82 Y82.975 E3.3031
G1 X71.089 Y82.903 E3.4635
G1 X72.037 Y82.698 E4.02217
G1 X72.212 Y82.667 E4.12454
G1 X73.073 Y82.545 E4.62543
G1 X73.25 Y82.528 E4.72785
G1 X74.605 Y82.458 E5.50937
G1 X74.731 Y82.455 E5.58196
G1 X77.873 Y82.455 E7.39176
G1 X78.569 Y82.411 E7.79345
G1 X79.539 Y82.196 E8.36573
G1 X80.096 Y82.017 E8.70272
G1 X80.256 Y81.972 E8.79846
G1 X81.103 Y81.767 E9.30042
G1 X81.277 Y81.731 E9.40276
G1 X82.151 Y81.586 E9.91307
G1 X82.324 Y81.564 E10.01352
G1 X83.193 Y81.484 E10.51618
G1 X83.34 Y81.476 E10.60098
G1 X84.081 Y81.455 E11.02797
G1 X85.331 Y81.456 E11.74797
G1 X85.79 Y81.472 E12.01251
G1 X86.128 Y81.473 E12.2072
G1 X86.787 Y81.455 E12.58693
G1 X88.365 Y81.456 E13.49585
G1 X88.928 Y81.477 E13.82037
G1 X89.383 Y81.475 E14.08245
G1 X89.744 Y81.457 E14.29064
G1 X89.84 Y81.455 E14.34595
G1 X91.036 Y81.456 E15.03485
G1 X92.04 Y81.492 E15.61352
G1 X92.156 Y81.5 E15.6805
G1 X93.044 Y81.599 E16.19516
G1 X93.221 Y81.624 E16.29812
G1 X94.094 Y81.786 E16.80955
G1 X94.242 Y81.819 E16.89689
G1 X95.099 Y82.043 E17.40711
G1 X95.285 Y82.099 E17.51899
G1 X95.47 Y82.162 E17.63156
G1 X96.135 Y82.343 E18.02854
G1 X96.829 Y82.439 E18.43209
G1 X97.246 Y82.455 E18.67246
G1 X122.701 Y82.455 E33.33454
G1 X123.397 Y82.411 E33.73623
G1 X124.367 Y82.196 E34.30851
G1 X124.924 Y82.017 E34.64551
G1 X125.084 Y81.972 E34.74124
G1 X125.931 Y81.767 E35.2432
G1 X126.105 Y81.731 E35.34555
G1 X126.979 Y81.586 E35.85585
G1 X127.152 Y81.564 E35.9563
G1 X128.021 Y81.484 E36.45896
G1 X128.168 Y81.476 E36.54376
G1 X128.909 Y81.455 E36.97075
G1 X137.152 Y81.456 E41.71872
G1 X138.156 Y81.492 E42.29739
G1 X138.272 Y81.5 E42.36437
G1 X139.16 Y81.599 E42.87902
G1 X139.337 Y81.624 E42.98199
G1 X140.21 Y81.786 E43.49342
G1 X140.358 Y81.819 E43.58076
G1 X141.223 Y82.045 E44.09573
G1 X141.4 Y82.098 E44.20215
G1 X141.587 Y82.162 E44.316
G1 X142.252 Y82.343 E44.71297
G1 X142.946 Y82.439 E45.11652
G1 X143.363 Y82.455 E45.35689
G1 X147.101 Y82.456 E47.50998
G1 X148.105 Y82.492 E48.08865
G1 X148.221 Y82.5 E48.15563
G1 X149.109 Y82.599 E48.67028
G1 X149.286 Y82.624 E48.77325
G1 X150.159 Y82.786 E49.28468
G1 X150.307 Y82.819 E49.37202
G1 X151.164 Y83.043 E49.88224
G1 X151.35 Y83.099 E49.99412
G1 X152.171 Y83.379 E50.49377
G1 X152.343 Y83.445 E50.59988
G1 X153.121 Y83.775 E51.08666
G1 X153.303 Y83.86 E51.20236
G1 X154.076 Y84.258 E51.70316
G1 X154.21 Y84.334 E51.79189
G1 X154.98 Y84.802 E52.31091
G1 X155.136 Y84.906 E52.4189
G1 X155.841 Y85.41 E52.91808
G1 X155.954 Y85.497 E53.00022
G1 X156.671 Y86.094 E53.53763
G1 X156.773 Y86.185 E53.61637
G1 X157.318 Y86.701 E54.04867
G1 X157.46 Y86.845 E54.16516
G1 X158.105 Y87.541 E54.71173
G1 X158.216 Y87.67 E54.80976
G1 X158.753 Y88.34 E55.30433
G1 X158.874 Y88.502 E55.4208
G1 X159.35 Y89.192 E55.90364
G1 X159.455 Y89.358 E56.01678
G1 X159.902 Y90.12 E56.52563
G1 X159.968 Y90.241 E56.60502
G1 X160.384 Y91.088 E57.14856
G1 X160.429 Y91.187 E57.2112
G1 X160.777 Y92.048 E57.74611
G1 X160.825 Y92.183 E57.82864
G1 X161.095 Y93.023 E58.33686
G1 X161.139 Y93.178 E58.42967
G1 X161.349 Y94.046 E58.94406
G1 X161.385 Y94.22 E59.04641
G1 X161.528 Y95.081 E59.54914
G1 X161.549 Y95.244 E59.6438
G1 X161.632 Y96.156 E60.17129
G1 X161.64 Y96.283 E60.24458
G1 X161.661 Y97.009 E60.66293
G1 X161.662 Y125.924 E77.31797
G1 X161.625 Y126.945 E77.90646
G1 X161.617 Y127.061 E77.97343
G1 X161.516 Y127.974 E78.50253
G1 X161.498 Y128.102 E78.57698
G1 X161.335 Y128.982 E79.09248
G1 X161.296 Y129.159 E79.19688
G1 X161.071 Y130.02 E79.70947
G1 X161.029 Y130.159 E79.79311
G1 X160.742 Y131 E80.30496
G1 X160.675 Y131.175 E80.41289
G1 X160.342 Y131.961 E80.90458
G1 X160.257 Y132.143 E81.02028
G1 X159.859 Y132.916 E81.52108
G1 X159.789 Y133.041 E81.6036
G1 X159.318 Y133.815 E82.12549
G1 X159.213 Y133.973 E82.23476
G1 X158.712 Y134.673 E82.73059
G1 X158.598 Y134.822 E82.83865
G1 X158.042 Y135.491 E83.3397
G1 X157.948 Y135.597 E83.42131
G1 X157.416 Y136.159 E83.86705
G1 X157.24 Y136.334 E84.01001
G1 X156.533 Y136.989 E84.56515
G1 X156.404 Y137.1 E84.66318
G1 X155.734 Y137.637 E85.15776
G1 X155.572 Y137.758 E85.27422
G1 X154.874 Y138.239 E85.76249
G1 X154.717 Y138.339 E85.86971
G1 X153.937 Y138.796 E86.39042
G1 X153.833 Y138.852 E86.45846
G1 X152.986 Y139.268 E87.002
G1 X152.876 Y139.318 E87.07159
G1 X152.035 Y139.657 E87.59388
G1 X151.879 Y139.713 E87.68935
G1 X151.04 Y139.982 E88.19685
G1 X150.891 Y140.024 E88.28602
G1 X150.028 Y140.233 E88.79748
G1 X149.855 Y140.269 E88.89926
G1 X148.98 Y140.414 E89.41013
G1 X148.807 Y140.436 E89.51058
G1 X147.934 Y140.516 E90.01554
G1 X147.793 Y140.524 E90.09688
G1 X147.038 Y140.545 E90.53193
G1 X143.342 Y140.542 E92.66083
G1 X142.646 Y140.585 E93.06249
G1 X141.667 Y140.803 E93.64021
G1 X141.127 Y140.978 E93.96717
G1 X140.989 Y141.016 E94.04962
G1 X140.12 Y141.228 E94.56484
G1 X139.939 Y141.265 E94.67125
G1 X139.053 Y141.414 E95.18876
G1 X138.919 Y141.431 E95.26656
G1 X138.009 Y141.516 E95.793
G1 X137.887 Y141.523 E95.86339
G1 X137.184 Y141.543 E96.26848
G1 X137.053 Y141.545 E96.34394
G1 X129.286 Y141.544 E100.81774
G1 X128.282 Y141.508 E101.39641
G1 X128.166 Y141.5 E101.46339
G1 X127.278 Y141.401 E101.97804
G1 X127.101 Y141.376 E102.08101
G1 X126.23 Y141.214 E102.59131
G1 X126.08 Y141.181 E102.67977
G1 X125.223 Y140.957 E103.18999
G1 X125.037 Y140.901 E103.30187
G1 X124.852 Y140.838 E103.41444
G1 X124.187 Y140.657 E103.81142
G1 X123.493 Y140.561 E104.21497
G1 X123.076 Y140.545 E104.45534
G1 X97.241 Y140.545 E119.3363
G1 X96.545 Y140.589 E119.73799
G1 X95.575 Y140.804 E120.31027
G1 X95.018 Y140.983 E120.64727
G1 X94.858 Y141.028 E120.743
G1 X94.011 Y141.233 E121.24496
G1 X93.838 Y141.269 E121.34674
G1 X92.963 Y141.414 E121.85762
G1 X92.789 Y141.436 E121.95864
G1 X91.921 Y141.516 E122.46073
G1 X91.774 Y141.524 E122.54552
G1 X91.033 Y141.545 E122.97251
G1 X89.792 Y141.544 E123.68733
G1 X89.336 Y141.528 E123.95014
G1 X88.993 Y141.527 E124.14771
G1 X88.279 Y141.545 E124.55911
G1 X86.765 Y141.544 E125.43117
G1 X86.172 Y141.523 E125.77295
G1 X85.728 Y141.526 E126.0287
G1 X85.397 Y141.542 E126.21958
G1 X85.247 Y141.545 E126.306
G1 X84.072 Y141.544 E126.9828
G1 X83.068 Y141.508 E127.56148
G1 X82.952 Y141.5 E127.62845
G1 X82.064 Y141.401 E128.14311
G1 X81.887 Y141.376 E128.24607
G1 X81.016 Y141.214 E128.75637
G1 X80.866 Y141.181 E128.84484
G1 X80.009 Y140.957 E129.35505
G1 X79.823 Y140.901 E129.46694
G1 X79.638 Y140.838 E129.57951
G1 X78.973 Y140.657 E129.97648
G1 X78.279 Y140.561 E130.38003
G1 X77.862 Y140.545 E130.6204
G1 X74.668 Y140.544 E132.46015
G1 X73.664 Y140.508 E133.03882
G1 X73.548 Y140.5 E133.1058
G1 X72.66 Y140.401 E133.62045
G1 X72.483 Y140.376 E133.72342
G1 X71.612 Y140.214 E134.23372
G1 X71.475 Y140.184 E134.3145
G1 X70.575 Y139.949 E134.85028
G1 X70.43 Y139.906 E134.93739
G1 X69.778 Y139.691 E135.33284
G1 X69.449 Y139.571 E135.53455
G1 X68.59 Y139.227 E136.06754
G1 X68.452 Y139.166 E136.15445
G1 X67.672 Y138.785 E136.65446
G1 X67.488 Y138.687 E136.77454
G1 X66.717 Y138.239 E137.28816
G1 X66.625 Y138.181 E137.35081
G1 X65.865 Y137.661 E137.88123
G1 X65.747 Y137.573 E137.96601
G1 X65.04 Y137.011 E138.48623
G1 X64.912 Y136.901 E138.58345
G1 X64.276 Y136.314 E139.08197
G1 X64.141 Y136.18 E139.19153
G1 X63.543 Y135.539 E139.69647
G1 X63.448 Y135.43 E139.77975
G1 X63.386 Y135.354 E139.83625
G1 X63.012 Y134.937 E140.15889
G1 X62.423 Y134.348 E140.63868
G1 X61.737 Y133.61 E141.21906
G1 X61.626 Y133.481 E141.31708
G1 X61.089 Y132.811 E141.81166
G1 X60.968 Y132.649 E141.92813
G1 X60.487 Y131.951 E142.41639
G1 X60.386 Y131.792 E142.52489
G1 X59.922 Y131 E143.05361
G1 X59.874 Y130.91 E143.11236
G1 X59.458 Y130.063 E143.6559
G1 X59.405 Y129.945 E143.73041
G1 X59.065 Y129.103 E144.25345
G1 X59.011 Y128.95 E144.3469
G1 X58.741 Y128.108 E144.85622
G1 X58.703 Y127.972 E144.93756
G1 X58.489 Y127.091 E145.45977
G1 X58.457 Y126.933 E145.55263
G1 X58.311 Y126.049 E146.06871
G1 X58.29 Y125.884 E146.16451
G1 X58.21 Y125.014 E146.66775
G1 X58.202 Y124.868 E146.75197
G1 X58.181 Y124.141 E147.1709
G1 X58.181 Y121.919 E148.45077
G1 X58.218 Y120.898 E149.03925
G1 X58.225 Y120.792 E149.10044
G1 X58.325 Y119.894 E149.62088
G1 X58.352 Y119.706 E149.73028
G1 X58.512 Y118.844 E150.23528
G1 X58.545 Y118.696 E150.32262
G1 X58.769 Y117.839 E150.83283
G1 X58.825 Y117.653 E150.94472
G1 X59.105 Y116.832 E151.44436
G1 X59.159 Y116.689 E151.53241
G1 X59.424 Y116.066 E151.92237
G1 X59.653 Y115.416 E152.31933
G1 X59.802 Y114.721 E152.72874
G1 X59.862 Y113.916 E153.19371
G1 X59.862 Y109.146 E155.94123
G1 X59.818 Y108.458 E156.33833
G1 X59.684 Y107.756 E156.74998
G1 X59.627 Y107.593 E156.84944
G1 X59.66 Y107.578 E156.87032
G1 X59.065 Y106.107 E157.78431
G1 X59.011 Y105.954 E157.87776
G1 X58.741 Y105.112 E158.38708
G1 X58.702 Y104.972 E158.47079
G1 X58.493 Y104.109 E158.98225
G1 X58.457 Y103.935 E159.08459
G1 X58.311 Y103.053 E159.59954
G1 X58.29 Y102.888 E159.69534
G1 X58.21 Y102.018 E160.19858
G1 X58.202 Y101.872 E160.2828
G1 X58.181 Y101.145 E160.70173
G1 X58.181 Y98.861 E162.01731
G1 X58.218 Y97.84 E162.60579
G1 X58.225 Y97.734 E162.66698
G1 X58.325 Y96.836 E163.18743
G1 X58.352 Y96.648 E163.29683
G1 X58.512 Y95.786 E163.80182
G1 X58.545 Y95.638 E163.88916
G1 X58.769 Y94.781 E164.39938
G1 X58.825 Y94.595 E164.51126
G1 X59.105 Y93.774 E165.0109
G1 X59.171 Y93.602 E165.11702
G1 X59.501 Y92.824 E165.60379
G1 X59.589 Y92.635 E165.72388
G1 X59.984 Y91.869 E166.2203
G1 X60.054 Y91.744 E166.30283
G1 X60.528 Y90.965 E166.82807
G1 X60.632 Y90.809 E166.93606
G1 X61.127 Y90.117 E167.42613
G1 X61.235 Y89.976 E167.52843
G1 X61.807 Y89.289 E168.04335
G1 X61.899 Y89.185 E168.12333
G1 X62.42 Y88.634 E168.56012
G1 X62.949 Y88.105 E168.99103
G1 X62.963 Y88.119 E169.00244
G1 X63.543 Y87.458 E169.50897
G1 X64.181 Y86.781 E170.04479
G1 X64.289 Y86.674 E170.13236
G1 X64.836 Y86.166 E170.56235
G1 X64.976 Y86.044 E170.66931
G1 X65.694 Y85.463 E171.20132
G0 F7200 X64.8 Y86.199
G1 F1237.5 X64.8 Y136.797 E200.34577
G0 F7200 X67.2 Y138.519
G1 F1237.5 X67.2 Y84.465 E231.48087
G0 F7200 X69.6 Y83.354
G1 F1237.5 X69.6 Y139.626 E263.89354
G0 F7200 X72 Y140.286
G1 F1237.5 X72 Y82.706 E297.05962
G0 F7200 X74.4 Y82.468
G1 F1237.5 X74.4 Y140.534 E330.50564
G0 F7200 X76.8 Y140.544
G1 F1237.5 X76.8 Y82.455 E363.9649
G0 F7200 X79.2 Y82.271
G1 F1237.5 X79.2 Y140.718 E397.63038
G0 F7200 X81.6 Y141.322
G1 F1237.5 X81.6 Y81.677 E431.9859
G0 F7200 X84 Y81.457
G1 F1237.5 X84 Y141.541 E466.59428
G0 F7200 X86.4 Y141.531
G1 F1237.5 X86.4 Y81.465 E501.1923
G0 F7200 X88.8 Y81.473
G1 F1237.5 X88.8 Y141.532 E535.78628
G0 F7200 X91.2 Y141.541
G1 F1237.5 X91.2 Y81.462 E570.39178
G0 F7200 X93.6 Y81.695
G1 F1237.5 X93.6 Y141.309 E604.72945
G0 F7200 X96 Y140.71
G1 F1237.5 X96 Y82.307 E638.36958
G0 F7200 X98.4 Y82.455
G1 F1237.5 X98.4 Y140.545 E671.82942
G0 F7200 X100.8 Y140.545
G1 F1237.5 X100.8 Y82.455 E705.28926
G0 F7200 X103.2 Y82.455
G1 F1237.5 X103.2 Y140.545 E738.7491
G0 F7200 X105.6 Y140.545
G1 F1237.5 X105.6 Y82.455 E772.20894
G0 F7200 X108 Y82.455
G1 F1237.5 X108 Y140.545 E805.66878
G0 F7200 X110.4 Y140.545
G1 F1237.5 X110.4 Y82.455 E839.12862
G0 F7200 X112.8 Y82.455
G1 F1237.5 X112.8 Y140.545 E872.58846
G0 F7200 X115.2 Y140.545
G1 F1237.5 X115.2 Y82.455 E906.0483
G0 F7200 X117.6 Y82.455
G1 F1237.5 X117.6 Y140.545 E939.50814
G0 F7200 X120 Y140.545
G1 F1237.5 X120 Y82.455 E972.96798
G0 F7200 X122.4 Y82.455
G1 F1237.5 X122.4 Y140.545 E1006.42782
G0 F7200 X124.8 Y140.823
G1 F1237.5 X124.8 Y82.056 E1040.27761
G0 F7200 X127.2 Y81.559
G1 F1237.5 X127.2 Y141.389 E1074.73969
G0 F7200 X129.6 Y141.544
G1 F1237.5 X129.6 Y81.456 E1109.35038
G0 F7200 X132 Y81.456
G1 F1237.5 X132 Y141.544 E1143.96106
G0 F7200 X134.4 Y141.544
G1 F1237.5 X134.4 Y81.456 E1178.57175
G0 F7200 X136.8 Y81.456
G1 F1237.5 X136.8 Y141.544 E1213.18244
G0 F7200 X139.2 Y141.39
G1 F1237.5 X139.2 Y81.605 E1247.6186
G0 F7200 X141.6 Y82.166
G1 F1237.5 X141.6 Y140.825 E1281.40618
G0 F7200 X144 Y140.542
G1 F1237.5 X144 Y82.456 E1314.86372
G0 F7200 X146.4 Y82.456
G1 F1237.5 X146.4 Y140.544 E1348.32241
G0 F7200 X148.8 Y140.437
G1 F1237.5 X148.8 Y82.565 E1381.65668
G0 F7200 X151.2 Y83.054
G1 F1237.5 X151.2 Y139.931 E1414.41783
G0 F7200 X153.6 Y138.967
G1 F1237.5 X153.6 Y84.013 E1446.07134
G0 F7200 X156 Y85.536
G1 F1237.5 X156 Y137.424 E1475.95882
G0 F7200 X158.4 Y135.061
G1 F1237.5 X158.4 Y87.9 E1503.12356
G0 F7200 X160.8 Y92.113
G1 F1237.5 X160.8 Y130.831 E1525.42513
G0 F7200 X62.4 Y134.323
G1 F1237.5 X62.4 Y88.655 E1551.7299
G0 F7200 X60 Y91.84
G1 F1237.5 X60 Y131.133 E1574.36266
G0 F600 X60 Y131.133 Z0.705
G0 F7200 X60.323 Y131.825
;TIME_ELAPSED:138.841636
;LAYER:-7
;TYPE:SUPPORT
G1 F1237.5 X60.421 Y131.979 E1574.4062
G1 X60.911 Y132.69 E1574.61214
G1 X61.021 Y132.837 E1574.65593
G1 X61.581 Y133.535 E1574.86936
G1 X61.692 Y133.664 E1574.90995
G1 X62.329 Y134.35 E1575.13322
G1 X62.96 Y134.983 E1575.34639
G1 X63.332 Y135.399 E1575.47948
G1 X63.382 Y135.459 E1575.49811
G1 X63.503 Y135.598 E1575.54206
G1 X64.104 Y136.241 E1575.75198
G1 X64.215 Y136.353 E1575.78959
G1 X64.855 Y136.943 E1575.99719
G1 X65.007 Y137.074 E1576.04505
G1 X65.69 Y137.617 E1576.25315
G1 X65.823 Y137.716 E1576.2927
G1 X66.569 Y138.227 E1576.50835
G1 X66.688 Y138.303 E1576.54203
G1 X67.455 Y138.748 E1576.75352
G1 X67.491 Y138.767 E1576.76323
G1 X60.006 Y131.282 E1579.28784
G1 X59.87 Y131.05 E1579.35198
G1 X59.809 Y130.937 E1579.38261
G1 X59.394 Y130.092 E1579.60713
G1 X59.341 Y129.972 E1579.63842
G1 X59.003 Y129.138 E1579.85304
G1 X58.95 Y128.988 E1579.89099
G1 X58.694 Y128.188 E1580.09132
G1 X70.506 Y140 E1584.07539
G1 X70.557 Y140.016 E1584.08813
G1 X71.464 Y140.253 E1584.31172
G1 X71.581 Y140.279 E1584.3403
G1 X72.462 Y140.442 E1584.55399
G1 X72.642 Y140.468 E1584.59736
G1 X72.769 Y140.482 E1584.62784
G1 X58.226 Y125.939 E1589.53304
G1 X58.221 Y125.892 E1589.54432
G1 X58.139 Y124.998 E1589.75843
G1 X58.131 Y124.868 E1589.78949
G1 X58.11 Y124.14 E1589.96319
G1 X58.11 Y124.041 E1589.9868
G1 X74.682 Y140.613 E1595.57637
G1 X76.464 Y140.613 E1596.00138
G1 X58.11 Y122.259 E1602.192
G1 X58.111 Y121.915 E1602.27404
G1 X58.146 Y120.913 E1602.51317
G1 X58.158 Y120.763 E1602.54906
G1 X58.181 Y120.548 E1602.60063
G1 X78.261 Y140.628 E1609.37341
G1 X78.272 Y140.629 E1609.37604
G1 X78.958 Y140.725 E1609.54125
G1 X79.616 Y140.904 E1609.70388
G1 X79.821 Y140.973 E1609.75547
G1 X79.969 Y141.018 E1609.79237
G1 X80.596 Y141.181 E1609.94688
G1 X58.411 Y118.996 E1617.42965
G1 X58.443 Y118.827 E1617.47068
G1 X58.472 Y118.697 E1617.50244
G1 X58.706 Y117.799 E1617.72377
G1 X58.752 Y117.649 E1617.76119
G1 X58.776 Y117.579 E1617.77884
G1 X82.741 Y141.544 E1625.86199
G1 X82.94 Y141.567 E1625.90977
G1 X83.077 Y141.577 E1625.94253
G1 X84.068 Y141.612 E1626.17903
G1 X84.591 Y141.612 E1626.30376
G1 X59.256 Y116.277 E1634.849
G1 X59.358 Y116.039 E1634.91076
G1 X59.584 Y115.396 E1635.07331
G1 X59.686 Y114.925 E1635.18825
G1 X86.359 Y141.598 E1644.18479
G1 X86.762 Y141.613 E1644.28097
G1 X88.156 Y141.613 E1644.61344
G1 X59.791 Y113.248 E1654.18067
G1 X59.791 Y111.466 E1654.60567
G1 X89.937 Y141.612 E1664.77361
G1 X91.035 Y141.614 E1665.03549
G1 X91.701 Y141.595 E1665.19439
G1 X59.791 Y109.684 E1675.95748
G1 X59.792 Y109.146 E1676.0858
G1 X59.749 Y108.465 E1676.24854
G1 X59.616 Y107.774 E1676.41637
G1 X59.59 Y107.702 E1676.43463
G1 X93.314 Y141.425 E1687.80922
G1 X93.869 Y141.334 E1687.94336
G1 X94.016 Y141.303 E1687.97919
G1 X94.786 Y141.116 E1688.16817
G1 X58.624 Y104.954 E1700.36525
G1 X58.42 Y104.105 E1700.5735
G1 X58.39 Y103.966 E1700.60741
